X:1
T:Title
%%score { ( 1 4 ) | ( 2 3 ) }
L:1/8
M:4/4
K:F
V:1 treble nm="Grand Piano"
V:4 treble 
V:2 bass 
V:3 bass 
V:1
 z4 z2[Q:1/4=108] C2 | F2 A2 G2 C2 | F>A c2 c2 A,2 | B2 A2 G2 D2 | G2 G2 G2 G2 | G2 G2 G2 C2 | %6
 c2 A2 F2 A2 | G2 D2 E2 F2 | Gedc BGEC | c2 A2 F2 c2 | d2 B2 G2 d2 | c2 A2 F2 B2 |[M:7/8] G3 F F3 | %13
[M:6/8][Q:1/4=99] [Ec]F>F FFc | z E2- E3 | c[Ec]>[Ec] [Ec][Ec][EG] | z c2- c3 | CFA CFA | %18
[M:7/8] [GB][Ac][FA] [Ac] [Af]3 |[M:3/4] [F_Ad][F=Ad]/[FAc]/- [FAc][CFA] [Ec]<[EB] | %20
[M:5/8] z F- F3- | F z z z2 |] %22
V:2
 z4 z2 C,2 | [F,A,C]2 A,2 [G,CE]2 C,2 | F,>A,[K:treble] [FA]2 [FA]2 z2 | %3
 [B,D]2 [A,CD^F]2[K:bass] [G,B,D]2 D,2 | [B,D]2 z2 z4 | [B,CE]2 G,2 [E,B,CE]2 C,2 | %6
 [CFA]2 A,2[K:bass] [F,A,C]2 A,2 | [G,=B,DF]2 D,2 E,2 F,2 | [G,B,E]6 C,2 | %9
 [CFA]2 A,2[K:bass] [F,A,C_E]2 C2 | [DGB]2 B,2 [G,B,D]2 [DF_A=B]2 | %11
 [CFA]2[K:bass] A,2 [F,A,D]2[K:treble] [B,DG]2 |[M:7/8] [G,B,CE]3[K:bass] [F,A,C] [F,A,C]3 | %13
[M:6/8] [C,B,][F,A,]>[F,A,] [F,A,][F,A,][F,A,F] | [F,A,C][G,B,C]>[G,B,] [G,B,] [G,B,]2 | %15
 [G,B,E][C,B,]>[C,B,] [C,B,][C,B,][C,B,] | [C,B,][F,A,F]>[F,A,] [F,B,] [F,C]2 | %17
 [G,B,][F,A,C][F,CF] [G,B,][F,A,C][F,CF] |[M:7/8] [F,C][F,F][F,C] [F,C] [D,D]3 | %19
[M:3/4] =B,,C,/C,/- C,C, [C,G,]<[C,G,] |[M:5/8] [C,B,C][F,A,C]>[F,A,] [F,B,][F,A,]- | %21
 [F,A,] z z z2 |] %22
V:3
 x8 | x8 | z2[K:treble] C4 z2 | x4[K:bass] x4 | G,2- [G,-B,D]2 [G,B,D]2 G,2 | x8 | x4[K:bass] x4 | %7
 x8 | x8 | x4[K:bass] x4 | x8 | x2[K:bass] x4[K:treble] x2 |[M:7/8] x3[K:bass] x4 |[M:6/8] x6 | %14
 x6 | x6 | x6 | x6 |[M:7/8] x7 |[M:3/4] x6 |[M:5/8] x5 | x5 |] %22
V:4
 x8 | x8 | x8 | x8 | x8 | x8 | x8 | x8 | x8 | x8 | x8 | x8 |[M:7/8] x7 |[M:6/8] x6 | %14
 .F2 z/ C/ C C2 | x6 | .[Ed]2 z/ F/ G A2 | x6 |[M:7/8] x7 |[M:3/4] x6 |[M:5/8] E z z/ C/ DC- | %21
 C z z z2 |] %22

